X:1
T:Frisch gesungen
T:Melodie: Friedrich Silcher (1789-1860) Satz: Józef Świder nach Friedrich Silchers Satz für Männerchor 
T:Text: Adelbert von Chamisso (1781-1838)
T:Hab oft im Kreise der Lieben
T:CPDL - Creative Commons Attribution Non Commercial 3.0
C:Friedrich Silcher
Z:Adelbert von Chamisso
Z:CPDL - Creative Commons Attribution Non Commercial 3.0
%%score [ ( 1 2 ) ( 3 4 ) ]
L:1/8
Q:1/4=100
M:2/2
K:Bb
V:1 treble nm="Tenor"
V:2 treble 
V:3 bass nm="Bass"
V:4 bass 
V:1
"^Lebendig"!mf! F2 | d2 d2 e2 (dd) |!>(! (c3 d)!>)! c2 dc | B2 (BB) cB(AB) | c4 z2 c2 | %5
 c2!<(! c2 d2 (d!<)!d) |!>(! f4 e2 dc!>)! | B2 BB AB cd | B4 z2 B2 | B2 B2 e2 (dd) | (c3 d) c2 d2 | %11
 e2 ed c2 c>d | c4 z2!f! c2 | !>!f4 =e2 z2 | !>!_e4 d2 z d | fedc B2 A2 | B4 z2 |] %17
V:2
 F2 | F2 F2 E2 (FG) | F4 F2 E2 | D2 (DF) =E2 (FG) | A4 x2 F2 | F2 F2 F2 (FF) | G4 G2 G2 | %7
w: 1.~Hab'|oft im Krei- se der|Lie- ben in|duf- ti- gem Gra- se ge-|ruht und|mir ein Lied- lein ge-|sun- gen, und|
w: 2.~Hab'|ein- sam auch mich ge-|här- met in|ban- gem, _ dü- ste- rem|Mut und|ha- be wie- der ge-|sun- gen, und|
w: 3.~Und|man- ches, was ich er-|fah- ren, ver-|kocht' ich in stil- ler _|Wut, und|kam ich wie- der zu|sin- gen, war|
w: 4.~Sollst|uns nicht lan- ge _|kla- gen, was|al- les dir we- he _|tut, nur|frisch, nur frisch ge- *|sun- gen; und|
 F2 FF F2 E2 | D4 x2 B2 | B2 B2 B2 (FF) | G4 G2 GF | E2 EF G2 E2 | F4 x2 A2 | B4 B2 x2 | %14
w: al- les war hübsch und|gut, und|mir ein Lied- lein ge­-|sun- gen, und *|al- les war hübsch und|gut, und|al- les,|
w: al- les war wie- der|gut, und|ha- be wie- der ge­-|sun- gen, und *|al- les war wie- der|gut, und|al- les,|
w: al- les auch wie- der|gut, und|kam ich wie- der zu|sin- gen, war *|al- les auch wie- der|gut, war|al- les,|
w: al- les wird wie- der|gut, nur|frisch, nur frisch ge- *|sun- gen, und *|al- les wird wie- der|gut, und|al- les,|
 F4 _A2 x G | G2 GG F2 F2 | F4 x2 |] %17
w: al- les, und|al- les war hübsch und|gut.|
w: al- les, und|al- les war wie- der|gut.|
w: al- les war|al- les auch wie- der|gut.|
w: al- les, und|al- les wird wie- der|gut.|
V:3
!mf! F,2 | B,2 B,2 B,2 (B,B,) |!>(! (A,3 B,)!>)! A,2 A,2 | G,2 (G,G,) G,2 (CC) | C4 z2 A,2 | %5
 A,2!<(! A,2 =B,2 (B,!<)!B,) |!>(! C4 C2 C2!>)! | D2 DD CD A,2 | B,4 z2 B,2 | B,2 B,2 B,2 (B,B,) | %10
 (C2 G,2) C2 B,2 | B,2 B,B, C2 B,2 | A,4 z2!f! E2 | !>!_D4 C2 z2 | !>!C4 =B,2 z B, | C2 CC D2 C2 | %16
 D4 z2 |] %17
V:4
 F,2 | B,,2 F,2 G,2 (F,=E,) | F,4 F,2 F,2 | G,F,(=E,D,) C,2 (C,C,) | F,4 x2 F,2 | %5
 E,2 E,2 D,2 (D,D,) | C,4 C,2 E,2 | F,2 F,F, F,2 F,2 | B,4 x2 B,2 | B,2 _A,2 G,2 (F,F,) | %10
 =E,4 E,2 F,2 | G,2 G,F, =E,2 C,2 | F,4 x2 F,2 | G,4 G,2 x2 | A,4 F,2 x F, | E,2 E,E, F,2 F,2 | %16
 [B,,F,B,]4 x2 |] %17

